website/public/Images/logos/redis_white.svg

<svg width="33" height="28" viewBox="0 0 33 28" fill="none" xmlns="http://www.w3.org/2000/svg">
<g clip-path="url(#clip0)">
<path d="M30.9155 21.6675C29.2496 22.5856 20.6197 26.3372 18.7824 27.3497C16.9452 28.3623 15.9245 28.3528 14.4732 27.6194C13.0218 26.886 3.83804 22.9637 2.18373 22.1277C1.35685 21.7098 0.922119 21.3574 0.922119 21.0241V17.6879C0.922119 17.6879 12.8781 14.936 14.8084 14.2039C16.7387 13.4719 17.4082 13.4473 19.0507 14.0817C20.6933 14.7161 30.5151 16.5915 32.1384 17.2202L32.1377 20.5088C32.1379 20.8386 31.7633 21.2005 30.9155 21.6677V21.6675Z" fill="#EAEAEA"/>
<path d="M30.9154 18.3303C29.2495 19.248 20.6196 23 18.7823 24.0126C16.9451 25.0252 15.9244 25.0157 14.4731 24.2823C13.0217 23.5489 3.83794 19.6262 2.18363 18.7905C0.52932 17.9549 0.494636 17.379 2.11977 16.7064L14.8085 11.5125C16.7386 10.7806 17.4082 10.7558 19.0508 11.3902C20.6934 12.0247 29.2721 15.6365 30.8952 16.2652C32.5184 16.8938 32.5813 17.4124 30.9136 18.3305L30.9154 18.3303Z" fill="white"/>
<path d="M30.9155 16.2281C29.2496 17.1462 20.6197 20.8978 18.7824 21.9109C16.9452 22.9241 15.9245 22.9136 14.4732 22.1801C13.0218 21.4465 3.83804 17.5244 2.18373 16.6883C1.35685 16.2704 0.922119 15.9181 0.922119 15.5851V12.2486C0.922119 12.2486 12.8781 9.49678 14.8084 8.76455C16.7387 8.03232 17.4082 8.00787 19.0507 8.64232C20.6933 9.27676 30.5151 11.1518 32.1384 11.7806L32.1377 15.0698C32.1379 15.3996 31.7633 15.7613 30.9155 16.2285V16.2281Z" fill="#EAEAEA"/>
<path d="M30.9154 12.8907C29.2495 13.8088 20.6196 17.5604 18.7823 18.5736C16.9451 19.5867 15.9244 19.5763 14.4731 18.8427C13.0217 18.1091 3.83794 14.1868 2.18363 13.351C0.52932 12.5151 0.494636 11.9396 2.11977 11.2666L14.8085 6.07308C16.7386 5.34104 17.4082 5.3164 19.0508 5.95084C20.6934 6.58529 29.2721 10.197 30.8952 10.8258C32.5184 11.4546 32.5813 11.973 30.9136 12.8911L30.9154 12.8907Z" fill="white"/>
<path d="M30.9155 10.5851C29.2496 11.5032 20.6197 15.2551 18.7824 16.2699C16.9452 17.2846 15.9245 17.2725 14.4732 16.539C13.0218 15.8054 3.83804 11.8831 2.18373 11.0472C1.35685 10.6293 0.922119 10.277 0.922119 9.94403V6.60572C0.922119 6.60572 12.8781 3.85394 14.8084 3.1219C16.7387 2.38986 17.4082 2.36523 19.0507 2.99967C20.6933 3.63412 30.5151 5.50912 32.1384 6.13794L32.1377 9.42696C32.1379 9.75641 31.7633 10.1183 30.9155 10.5853V10.5851Z" fill="#EAEAEA"/>
<path d="M30.9154 7.24804C29.2495 8.16614 20.6196 11.9181 18.7823 12.9309C16.9451 13.9437 15.9244 13.9336 14.4731 13.2002C13.0217 12.4668 3.83794 8.54428 2.18363 7.70844C0.52932 6.8726 0.494636 6.29695 2.11977 5.62409L14.8085 0.430566C16.7386 -0.301665 17.4082 -0.326113 19.0508 0.308332C20.6934 0.942777 29.2721 4.55446 30.8952 5.18328C32.5184 5.8121 32.5813 6.33032 30.9136 7.24823L30.9154 7.24804Z" fill="white"/>
<path d="M16.3322 4.15294L13.209 3.85609L15.5395 2.96748L14.8422 1.60352L17.0259 2.50571L19.0812 1.79365L18.5251 3.20418L20.6226 4.03458L17.9177 4.33143L17.3122 5.87195L16.3322 4.15294ZM12.1006 9.29446L19.3344 8.12064L17.1507 11.5082L12.1006 9.29446Z" fill="#EAEAEA"/>
<path d="M10.15 8.05975C12.2853 8.05975 14.0163 7.35031 14.0163 6.47518C14.0163 5.60006 12.2853 4.89062 10.15 4.89062C8.01469 4.89062 6.28369 5.60006 6.28369 6.47518C6.28369 7.35031 8.01469 8.05975 10.15 8.05975Z" fill="#EAEAEA"/>
<path d="M28.0985 6.24588L23.8228 8.03086V4.45508L28.0985 6.24588Z" fill="#DCDCDC"/>
<path d="M23.8193 4.45703V8.03282L23.355 8.22684L19.0793 6.44185L23.8193 4.45703Z" fill="#EAEAEA"/>
</g>
<defs>
<clipPath id="clip0">
<rect width="32" height="28" fill="white" transform="translate(0.955078)"/>
</clipPath>
</defs>
</svg>

<svg xmlns="http://www.w3.org/2000/svg" width="33" height="28" fill="none" xmlns:v="https://vecta.io/nano"><g clip-path="url(#A)"><path d="M30.916 21.668c-1.666.918-10.296 4.67-12.133 5.682s-2.858 1.003-4.309.27-10.635-4.656-12.289-5.492c-.827-.418-1.262-.77-1.262-1.104v-3.336s11.956-2.752 13.886-3.484 2.6-.757 4.242-.122 11.464 2.51 13.088 3.138v3.289c0 .33-.374.692-1.222 1.159h0z" fill="#eaeaea"/><path d="M30.915 18.33c-1.666.918-10.296 4.67-12.133 5.682s-2.858 1.003-4.309.27-10.635-4.656-12.289-5.492-1.689-1.412-.064-2.084l12.689-5.194c1.93-.732 2.6-.757 4.242-.122s10.221 4.246 11.844 4.875 1.686 1.147.018 2.065h.002z" fill="#fff"/><path d="M30.916 16.228c-1.666.918-10.296 4.67-12.133 5.683s-2.858 1.003-4.309.269-10.635-4.656-12.289-5.492c-.827-.418-1.262-.77-1.262-1.103v-3.337s11.956-2.752 13.886-3.484 2.6-.757 4.242-.122 11.464 2.509 13.088 3.138v3.289c0 .33-.374.691-1.222 1.159h0z" fill="#eaeaea"/><path d="M30.915 12.891c-1.666.918-10.296 4.67-12.133 5.683s-2.858 1.003-4.309.269-10.635-4.656-12.289-5.492-1.689-1.411-.064-2.084l12.689-5.194c1.93-.732 2.6-.757 4.242-.122s10.221 4.246 11.844 4.875 1.686 1.147.018 2.065h.002z" fill="#fff"/><path d="M30.916 10.585c-1.666.918-10.296 4.67-12.133 5.685s-2.858 1.003-4.309.269-10.635-4.656-12.289-5.492c-.827-.418-1.262-.77-1.262-1.103V6.606s11.956-2.752 13.886-3.484 2.6-.757 4.242-.122 11.464 2.509 13.088 3.138v3.289c0 .329-.374.691-1.222 1.158h0z" fill="#eaeaea"/><path d="M30.915 7.248c-1.666.918-10.296 4.67-12.133 5.683s-2.858 1.003-4.309.269S3.838 8.544 2.184 7.708.495 6.297 2.12 5.624L14.809.431c1.93-.732 2.6-.757 4.242-.122s10.221 4.246 11.844 4.875 1.686 1.147.018 2.065h.002z" fill="#fff"/><g fill="#eaeaea"><path d="M16.332 4.153l-3.123-.297 2.331-.889-.697-1.364 2.184.902 2.055-.712-.556 1.411 2.098.83-2.705.297-.605 1.541-.98-1.719zM12.1 9.295l7.234-1.174-2.184 3.388-5.05-2.214zM10.15 8.06c2.135 0 3.866-.709 3.866-1.585S12.285 4.89 10.15 4.89s-3.866.709-3.866 1.585S8.015 8.06 10.15 8.06z"/></g><path d="M28.099 6.246l-4.276 1.785V4.455l4.276 1.791z" fill="#dcdcdc"/><path d="M23.819 4.457v3.576l-.464.194-4.276-1.785 4.74-1.985z" fill="#eaeaea"/></g><defs><clipPath id="A"><path fill="#fff" transform="translate(.955)" d="M0 0h32v28H0z"/></clipPath></defs></svg>
